X:1
T:Christus resurgens I
T:Severo Bonino
T:Source : Primo libro de motetti a tre voci---op III---Venetia---A.Raverii---1609. Editor : André Vierendeels (05/09/17).
T:Notes : Original clefs : C1, C1, F4 Editorial accidentals above the staff
T:Christus resurgens I
T:©
T:©
T:©
T:©
T:©
T:©
T:©
T:©
T:©
T:©
C:Severo Bonino
Z:©
%%score [ 1 2 3 ]
L:1/8
Q:1/4=120
M:4/4
K:F
V:1 treble nm="Soprano 1" snm="S 1"
V:2 treble nm="Soprano 2" snm="S 2"
V:3 bass nm="Bass" snm="B"
V:1
 c8 | F4 G4 | A2 G2 F2 G2 | A4 B4 | c2 B2 A2 B2 | c8 | d4 c2 B2 | A4 z4 | z4 c4- | c2 B2 A4 | %10
w: Chri-|stus re-|sur- * * *|||||gens|ex|_ _ _|
 G4 F4- | F2 ED C4- | C4 D4 | E4 F2 E2 | D4 D4 | ^C8 | z2 D2 ^C3 C | D4 A4 | z2 F2 E2 E2 | %19
w: mor- *||||* tu-|is,|non mo- ri-|tur iam|non mo- ri-|
 D2 D2 ^C3 C | D4 z4 | D8 | G4 F4 | _E6 D/E/F | D8 | z8 | c2 cc B2 B2 | A3 A G4 | z4 c2 cc | %29
w: tur, non mo- ri-|tur|mors|il- li|ul- * * *|tra,||ul- tra non do- mi-|na- bi- tur,|ul- tra non|
 B2 B2 AGAF | G6 G2 | A8 | D4 G4- | G4 ^F4 |"^-natural" G6 FE | D4 D2 E2 | F6 E2 | D8- | D4 ^C4 | %39
w: do- mi- na- * * *|* bi-|tur,|quod e-|* nim|mor- * *|* tu- us|est pec-|ca-|* to,|
 z4 D4- | D2 D2 D4- | D4 G4- | G2 G2 F2 F2 | D8 | E2 G2 E3 F | G4 C2 G2 | E3 F G4 | C2 c2 A3 B | %48
w: mor-|* tu- us,|_ mor-|* tu- us est|se-|mel, quod au- tem|vi- vit, quod|au- tem vi-|vit, quod au- tem|
 c4 F2 c2 | A3 B c4 | F2 c2 A3 B | c2 B4 A2 | B4 A2 G2 | G2 ^F2 G4 | c2 B2 A4 |"^b" =B4 cBAB | %56
w: vi- vit, quod|au- tem vi-|vit, quod au- tem|vi- * *|vit, vi- vit|De- * o,|vi- vit De-|o, Al- * * *|
 cBAG FGAB | c=BcA B2 c2- | c2 =B2 c2 c2 |"^b" B3 B A3 A | G3 G F2 c2 | B3 B A3 A | G3 G F4 | %63
w: |* * * * * le|_ lu- ia, Al-|le- lu- ia, Al-|le- lu- ia, Al-|le- lu- ia, al-|le- lu- ia,|
 z4 C2 D2- | DD E3 E F2- | F2 G2 A2 A2 | B3 B c3 c | d3 d c3 A | B6 B2 | A8 | D4 G4- | G4 ^F4 | %72
w: Al- le-|* lu- ia, Al- le-|* lu- ia, Al-|le- lu- ia, Al-|le- lu- ia, Al-|le- lu-|ia,|quod e-|* nim|
"^-natural" G6 FE | D4 D2 E2 | F6 E2 | D8- | D4 ^C4 | z4 D4- | D2 D2 D4- | D4 G4- | G2 G2 F2 F2 | %81
w: mor- * *|* tu- us|est pec-|ca-|* to,|mor-|* tu- us,|_ mor-|* tu- us est|
 D8 | E3 G E3 F | G4 C2 G2 | E3 F G4 | C2 c2 A3 B | c4 F2 c2 | A3 B c4 | F2 c2 A3 B | c2 B4 A2 | %90
w: se-|mel quod au- tem|vi- vit, quod|au- tem vi-|vit, quod au- tem|vi- vit, quod|au- tem vi-|vit, quod au- tem|vi- * *|
 B4 A2 G2 | G2 ^F2 G4 | c2 B2 A4 | =B4 cBAB | cBAG FGAB | c=BcA B2 c2- | c2 =B2 c2 c2 | %97
w: vit, vi- vit|De- * o,|vi- vit De-|o, Al- * * *|||* le- * lu-|
"^b" B3 B A3 A | G3 G F2 c2 | B3 B A2 A2 | G3 G F4 | z4 C2 D2- | DD E3 E F2- | F2 G2 A2 A2 | %104
w: ia, Al- le- lu-|ia, Al- le- *|* lu- ia, Al-|le- lu- ia,|Al- le-|* lu- ia, Al- le-|* * * lu-|
 B3 c c3 c | d3 d c3 A | B2 F2 B4- | B4 B4 | A8 |] %109
w: ia, Al- le- lu-|ia, Al- le- lu-|ia, Al- le|_ lu-|ia.|
V:2
 z8 | z8 | c8 | F4 G4 | A2 G2 F2 G2 | A2 B4 A2 | B4 A2 G2 | F2 E2 D2 E2 | F4 G4 | A4 c4- | %10
w: ||Chri-|stus re-|sur- * * *|||||gens ex|
 c2 B2 A4 | G4 A2 G2 | F6 G2 | A6 G2 | F4 F4 | E4 A4 | z2 F2 E2 E2 | D4 E4 | z2 D2 ^C3 C | %19
w: _ _ _|mor- * *|||* tu-|is, iam|non mo- ri-|tur iam|non mo- ri-|
 D2 F2 E3 E | D4 z4 | B8 | B4 d4 | c8 | =B8 |"^b" c2 cc B2 B2 | A3 A G4 | z8 | F2 FF E2 E2 | %29
w: tur, non mo- ri-|tur|mors|il- li|ul-|tra,|ul- tra non do- mi-|na- bi- tur,||ul- tra non do- mi-|
 D3 E F4- | F4 E4 | F8 | B8 | A6 A2 | B8- | B4 B2 B2 | A4 G4 | F8 | E8 | ^F6 F2 | ^F3 G A4 | %41
w: na- * *|* bi-|tur,|quod|e- nim|mor-|* tu- us|est pec-|ca-|to,|mor- tu-|us, _ _|
 =B6 B2 | c4 A4 |"^b" B6 A2 | G6 G2 | E3 F G4 | C2 G2 E3 F | G4 F2 c2 | A3 B c4 | F2 c2 A3 B | %50
w: mor- tu-|us est|se- *|mel, quod|au- tem vi-|vit, quod au- tem|vi- vit, quod|au- tem vi-|vit, quod au- tem|
 c4 F4 | A2 B2 c4 | d4 c2 B2 | A4 G4 | A2 G2 G2 ^F2 | G4 AGFG |"^b" ABcB AGFG | AG A/G/F/E/ D2 E2 | %58
w: vi- vit,|vi- * *|vit, vi- vit|De- o,|vi- vit De- *|o, Al- * * *||* * * * * * * le-|
 D4 E4 | z4 z2 c2 |"^b" B3 B A3 A | G3 G F2 c2- | c2 B3 B A2- | AAGG F2 A2 | B3 B c3 c | d3 d c4 | %66
w: lu- ia,|Al-|le- lu- ia, Al-|le- lu- ia, Al|_ le- lu- ia,|_ Al- le- lu- ia, Al|le- lu- ia, Al-|le- lu- ia,|
 z4 z2 A2 | B3 B c3 c | d6 d2 | c8 | B8 | A6 A2 | B8- | B4 B2 B2 | A4 G4 | F8 | E8 | ^F6 F2 | %78
w: Al-|le- lu- ia, Al-|le- lu-|ia,|quod|e- nim|mor-|* tu- us|est pec-|ca-|to,|mor- tu-|
 ^F3 G A4 | =B6 B2 | c4 A4 |"^b" B6 A2 | G6 G2 | E3 F G4 | C2 G2 E3 F | G4 F2 c2 | A3 B c4 | %87
w: us, _ _|mor- tu-|us est|se- *|mel, quod|au- tem vi-|vit, quod au- tem|vi- vit, quod|au- tem vi-|
 F2 c2 A3 B | c4 F4 | A2 B2 c4 | d4 c2 B2 | A4 G4 | A2 G2 G2 ^F2 | G4 AGFG |"^b" ABcB AGFG | %95
w: vit, quod au- tem|vi- vit,|vi- * *|vit, vi- vit|De- o,|vi- vit De- *|o, Al- * * *||
 AG A/G/F/E/ D2 E2 | D4 E4 | z4 z2 c2 | B3 B A2 A2 | G3 G F2 c2- | c2 B3 B A2- | AAGG F2 A2 | %102
w: * * * * * * * le-|lu- ia,|Al-|le- lu- ia, Al-|le- lu- ia, Al-|* le- lu- ia,|_ Al- le- lu- ia, Al|
 B3 B c3 c | d3 d c4 | z4 z2 A2 | B3 B c3 c | d8- | d4 d4 | c8 |] %109
w: le- lu- ia, Al-|le- lu- ia,|Al-|le- lu- ia, Al-|le-|* lu-|ia.|
V:3
 z8 | z8 | z8 | z8 | F,8- | F,8 | B,,4 C,4 | D,2 C,2 B,,2 C,2 | D,4 E,4 | F,8 | C,8- | C,4 F,4- | %12
w: ||||Chri-||stus re-|sur- * * *|||gens|_ ex|
 F,2 E,2 D,4 | ^C,4 D,4- | D,4 D,4 | A,,8 | z4 A,4 | z2 D,2 ^C,2 C,2 | D,4 z4 | z8 |"^b" z8 | %21
w: _ _ _|mor- *|* tu-|is,|iam|non mo- ri-|tur|||
 B,,8 | _E,4 B,,4 | C,8 | G,,8 | z8 | z8 | F,2 F,F, _E,2 E,2 | D,3 D, C,4 | G,,4 F,,2 F,,2 | %30
w: mors|il- li|ul-|tra,|||ul- tra non do- mi-|na- bi- tur,|non do- mi-|
 C,6 C,2 | F,,8 | G,8 | D,6 D,2 | G,8- | G,4 G,2 G,2 |"^-natural" F,4 C,4 | D,8 | A,8 | D,6 D,2 | %40
w: na- bi-|tur,|quod|e- nim|mor-|* tu- us|est pec-|ca-|to,|mor- tu-|
 D,8 | G,,6 G,,2 | C,4 F,,4 | B,,8 | C,8- | C,8- | C,8 | C,4 F,4- | F,4 F,4- | F,2 F,,2 F,3 G, | %50
w: us,|mor- tu-|us est|se-|mel,|_||quod au-|* tem,|_ quod au- tem|
 A,4 F,4 | z8 | z4 F,2 G,2 | D,4 G,,4 | F,2 G,2 D,4 | G,,4 F,4- | F,4 F,4- | F,4 G,4 | G,,4 C,4 | %59
w: vi- vit,||vi- vit|De- o,|vi- vit De-|o, Al-|* le-|* lu-|* ia,|
 z8 | z8 | z4 z2 F,2 | _E,3 E, D,3 D, | C,3 C, F,,2 F,2 | G,3 G, A,3 A, | B,3 B, F,3 F, | %66
w: ||Al-|le- lu- ia, Al-|le- lu- ia, Al-|le- lu- ia, Al-|le- lu- ia, Al-|
 G,3 G, F,3 F, | B,,3 B,, F,,3 F,, | B,,6 B,,2 | F,,8 | G,8 | D,6 D,2 | G,8- | G,4 G,2 G,2 | %74
w: le- lu- ia, Al-|le- lu- ia, Al-|le- lu-|ia,|quod|e- nim|mor-|* tu- us|
"^-natural" F,4 C,4 | D,8 | A,8 | D,6 D,2 | D,8 | G,,6 G,,2 | C,4 F,,4 | B,,8 | C,8- | C,8- | C,8 | %85
w: est pec-|ca-|to,|mor- tu-|us,|mor- tu-|us est|se-|mel,|_||
 C,4 F,4- | F,4 F,4- | F,2 F,,2 F,3 G, | A,4 F,4 | z8 | z4 F,2 G,2 | D,4 G,,4 | %92
w: quod au-|* tem,|_ quod au- tem|vi- vit,||vi- vit|De- o,|
"^-natural" F,2 G,2 D,4 | G,,4 F,4- | F,4 F,4- | F,4 G,4 | G,,4 C,4 | z8 | z8 | z4 z2 F,2 | %100
w: vi- vit De-|o, Al-|* le-|* lu-|* ia,|||Al-|
 _E,3 E, D,3 D, | C,3 C, F,,2 F,2 | G,3 G, A,3 A, | B,3 B, F,2 F,2 | G,3 G, F,2 F,2 | %105
w: le- lu- ia, Al-|le- lu- ia, Al-|le- lu- ia, Al-|le- lu- ia, Al-|le- li- ia, Al-|
 B,,3 B,, F,,2 F,,2 | B,,8- | B,,4 B,,4 | F,,8 |] %109
w: le- lu- ia, Al-|le-|* lu-|ia.|

